epam-assets/icon-sources/18/action-job_function.svg

<svg width="18" height="18" viewBox="0 0 18 18" fill="none" xmlns="http://www.w3.org/2000/svg">
<g id="18/action-job_function">
<path id="icon" fill-rule="evenodd" clip-rule="evenodd" d="M7.5 2.25H10.5C11.3284 2.25 12 2.92157 12 3.75V5.25H15C15.8284 5.25 16.5 5.92157 16.5 6.75V15C16.5 15.8284 15.8284 16.5 15 16.5H3C2.1675 16.5 1.5 15.825 1.5 15V6.75C1.5 5.9175 2.1675 5.25 3 5.25H6V3.75C6 2.9175 6.6675 2.25 7.5 2.25ZM10.5 5.25V3.75H7.5V5.25H10.5Z" fill="#6C6F80"/>
</g>
</svg>

<svg xmlns="http://www.w3.org/2000/svg" width="18" height="18" fill="none" viewBox="0 0 18 18">
  <path fill="#6C6F80" fill-rule="evenodd" d="M7.5 2.25h3a1.5 1.5 0 0 1 1.5 1.5v1.5h3a1.5 1.5 0 0 1 1.5 1.5V15a1.5 1.5 0 0 1-1.5 1.5H3A1.5 1.5 0 0 1 1.5 15V6.75c0-.832.667-1.5 1.5-1.5h3v-1.5c0-.833.668-1.5 1.5-1.5Zm3 3v-1.5h-3v1.5h3Z" clip-rule="evenodd"/>
</svg>
